!!!!SEGMENT: pl-wnifc--6634-n--002_lada-kazimierz--2-kujawiak.krn
!!!cenid: 18xx:3998
!!!COM: Łada, Kazimierz
!!!COM-rismID: pe50044989
!!!CDT: 1824-1871
!!!CNT:
!!!OTL: 2. Kujawiak
!!!PDT:
!!!AGN:
!!!YEC: Copyright 2022 Narodowy Instytut Fryderyka Chopina (https://polishscores.org)
!!!YEM: License CC-BY-4.0 (https://creativecommons.org/licenses/by/4.0)
!!!SMS-siglum: PL-Wnifc
!!!SMS-shelfmark: 6634/n
!!!SMS-shelfwork: 002 W
!!!SMS-variant:
!!!SMS-altvar:
!!!NIFC-rismSourceID: 1001148593
!!!NIFC-rismChildID: 1001148597
!!!NIFC-islandoraID: nifc:212915
!!!URL-pdf-islandora: https://repozytorium.nifc.pl/islandora/object/nifc%3A212915/datastream/PDF/view
!!!URL-scan: https://polish.musicsources.pl/pl/lokalizacje/galeria/druki-muzyczne/16872 @EN{Scan on Polish Music Sources Website} @PL{Skany w portalu Dziedzictwo Muzyki Polskiej w otwartym dostępie}
!!!IIIF:
!!!ONB-nifc: UWAGA: str. 5-7
!!!AIN: 1 violn
!!!key: D
**kern	**fing	**dynam
*staff1	*	*
*I"Violon.	*	*
*I'vl	*	*
*ICstr	*	*
*Ivioln	*	*
*>[A,A1,A,A2,B,B,B1,B,B2,C,C1,C,C2,D,D1,D,D2,E]	*>[A,A1,A,A2,B,B,B1,B,B2,C,C1,C,C2,D,D1,D,D2,E]	*>[A,A1,A,A2,B,B,B1,B,B2,C,C1,C,C2,D,D1,D,D2,E]
*>A	*>A	*>A
*clefG2	*	*
*D:	*	*
*k[f#c#]	*	*
*M3/4	*	*
=1	=1	=1
!LO:TX:b:i:t=jetez l`archet	!	!
!LO:TX:a:B:t=Allegro con fuoco.	!	!
12eu/L	.	ff
12e/	.	.
12e/J	.	.
4e/	.	.
(8c#/L	.	.
8e/J)	.	.
=2	=2	=2
12a/L	.	.
12a/	.	.
12a/J	.	.
4a/	.	.
(8f#/L	.	.
8a/J)	.	.
=3	=3	=3
!LO:TUP:a	!	!
12ee\L	.	.
12ee\	.	.
12ee\J	.	.
4ee\	.	.
(8cc#\L	.	.
8ee\J)	.	.
=4	=4	=4
!LO:TUP:a	!	!
12aa\L	.	.
12aa\	.	.
12aa\J	.	.
4aa\	.	.
(8ff#\L	.	.
8aa\J)	.	.
=5	=5	=5
12a/L	.	.
12a/	.	.
12a/J	.	.
4a/	.	.
(8cc#\L	.	.
8ee\J)	.	.
!LO:LB:g=original	!	!
=6	=6	=6
8dd\L	.	.
8ff#\J	.	.
2aa\	.	.
=7	=7	=7
!	!	!LO:HP:b:t=rall.e dim.
8aa\L	.	>
8gg#X\J	.	.
4ee\	.	.
8ee\L	.	.
8gg#\J	.	.
=8	=8	=8
2aa;\	.	.
=9:|!	=9:|!	=9:|!
!LO:TX:a:B:t=a tempo	!	!
12ggnu\L	.	.
12gg\	.	.
12gg\J	.	.
4gg\	.	.
8ff#\L	.	.
8ee\J	.	.
=10	=10	=10
!LO:TUP:a	!	!
12ff#\L	.	.
12ff#\	.	.
12ff#\J	.	.
4ff#\	.	.
8ee\L	.	.
8dd\J	.	.
=11	=11	=11
!LO:TUP:a	!	!
12ee\L	.	.
12ee\	.	.
12ee\J	.	.
4ee\	.	.
8dd\L	.	.
8cc#\J	.	.
=12	=12	=12
12dd\L	.	.
12dd\	.	.
12dd\J	.	.
4dd\	.	.
8a/L	.	.
8f#/J	.	.
!LO:LB:g=original	!	!
=13	=13	=13
12g/L	.	.
12g/	.	.
12g/J	.	.
4g/	.	.
8f#/L	.	.
8e/J	.	.
=14	=14	=14
12f#/L	.	.
12f#/	.	.
12f#/J	.	.
4f#/	.	.
8e/L	.	.
8d/J	.	.
=15	=15	=15
12e/L	.	.
12e/	.	.
12e/J	.	.
!LO:TX:b:i:t=rall.	!	!
4e/	.	.
8f#/L	.	.
8g#X/J	.	.
=16	=16	=16
2.a/	.	.
=17||	=17||	=17||
!LO:TX:a:i:B:t=a tempo leggiero	!	!
12ggu\L	.	.
12gg\	.	.
12gg\J	.	.
4gg\	.	.
8ff#\L	.	.
8ee\J	.	.
=18	=18	=18
!LO:TUP:a	!	!
12ff#\L	.	.
12ff#\	.	.
12ff#\J	.	.
4ff#\	.	.
8ee\L	.	.
8dd\J	.	.
=19	=19	=19
!LO:TUP:a	!	!
12ee\L	.	.
12ee\	.	.
12ee\J	.	.
4ee\	.	.
8dd\L	.	.
8cc#\J	.	.
=20	=20	=20
!LO:TUP:a	!	!
12dd\L	.	.
12dd\	.	.
12dd\J	.	.
4dd\	.	.
8a/L	.	.
8g/J	.	.
=21	=21	=21
12g/L	.	.
12g/	.	.
12g/J	.	.
4g/	.	.
8f#/L	.	.
8e/J	.	.
=22	=22	=22
12f#/L	.	.
12f#/	.	.
12f#/J	.	.
4f#/	.	.
8e/L	.	.
8d/J	.	.
=23	=23	=23
12e/L	.	.
12e/	.	.
12e/J	.	.
4e/	.	.
8f#/L	.	.
8g#X/J	.	.
=24	=24	=24
2.a/	.	.
!LO:LB:g=original	!	!
=25	=25	=25
(8qb/	.	.
2.a/)	.	.
=26	=26	=26
(8qb/	.	.
2.a/)	.	.
=27	=27	=27
(8qb/	.	.
4a/)	.	.
(8qb/	.	.
4a/)	.	.
(<8qb/	.	.
4a^>/)	.	.
=28	=28	=28
!LO:TX:b:i:t=rall.	!	!
(8qbb/	.	.
4aa\)	.	.
(8qbb/	.	.
4aa\)	.	.
(8qbb/	.	.
4aa\)	.	.
=29!|:	=29!|:	=29!|:
!LO:TX:a:i:t=sostenuto e cantabile	!	!
8.ddu\L	.	p
16ff#\Jk	.	.
2aa\	.	.
=30	=30	=30
8.gg#X\L	.	.
16ee\Jk	.	.
2aa\	.	.
=31	=31	=31
8.ff#\L	.	.
16dd\Jk	.	.
4aa\	.	.
4ff#\	.	.
=32	=32	=32
8eeW\L	.	.
8cc#\J	.	.
2a/	.	.
=33	=33	=33
8.dd\L	.	.
16ff#\Jk	.	.
2aa\	.	.
!LO:LB:g=original	!	!
=34	=34	=34
8.gg#X\L	.	.
16ee\Jk	.	.
2aa\	.	.
=35	=35	=35
8.ff#\L	.	.
16dd\Jk	.	.
4aa\	.	.
4ff#\	.	.
=36	=36	=36
8eeM\L	.	.
8cc#\J	.	.
2a/	.	.
=37	=37	=37
!LO:TUP:a:problem:klamra łukowa	!	!
12b\L	.	.
12cc#\	.	.
12dd\J	.	.
4cc#\	.	.
4b\	.	.
=38	=38	=38
!LO:TUP:a:problem:klamra łukowa	!	!
12cc#\L	.	.
12a\	.	.
12cc#\J	.	.
2ee\	4	.
=39	=39	=39
!LO:TUP:a:problem:klamra łukowa	!	!
12b\L	.	.
12cc#\	.	.
12dd\J	.	.
4cc#\	.	.
4b\	.	.
=40	=40	=40
8cc#\L	.	.
8a\J	.	.
2e/	.	.
!LO:LB:g=original	!	!
=41	=41	=41
!LO:TUP:a:problem:klamra łukowa	!	!
12b\L	.	.
12cc#\	.	.
12dd\J	.	.
4cc#\	.	.
4b\	.	.
=42	=42	=42
!LO:TUP:a:problem:klamra łukowa	!	!
12cc#\L	.	.
12a\	.	.
12cc#\J	.	.
2ee\	4	.
=43	=43	=43
!LO:TUP:a:problem:klamra łukowa	!	!
12b\L	.	.
12cc#\	.	.
12dd\J	.	.
4cc#\	.	.
4b\	.	.
=44	=44	=44
!	!	!LO:HP:b:t=dim.e rall.
(8qb/	.	>
2.a/)	.	.
=45	=45	=45
(8qb/	.	.
2.a/)	.	.
=46	=46	=46
(8qb/	.	.
2.a/)	.	.
=47:|!	=47:|!	=47:|!
*k[b-]	*	*
!LO:TX:a:B:t=Lento	!	!
!LO:TX:a:B:t=Più lento.	!	!
8du/L	.	mf
8f/J	.	.
2a/	.	.
=48	=48	=48
8g/L	.	.
8g/J	.	.
2a/	.	.
!LO:LB:g=original	!	!
=49	=49	=49
!LO:TUP:a:problem:klamra łukowa	!	!
12d/L	.	.
12e/	.	.
12f/J	.	.
4a/	.	.
4f/	.	.
=50	=50	=50
2.e/	.	.
=51	=51	=51
8d/L	.	.
8f/J	.	.
2a/	.	.
=52	=52	=52
8g/L	.	.
8g/J	.	.
2a/	.	.
=53	=53	=53
!LO:TUP:b:problem:klamra łukowa	!	!
12d/L	.	.
12e/	.	.
12f/J	.	.
4a/	.	.
4f/	.	.
=54	=54	=54
2.e/	.	.
=55	=55	=55
!LO:TUP:b:problem:klamra łukowa	!	!
12e/L	.	.
12f/	.	.
12g/J	.	.
4f/	.	.
4e/	.	.
=56	=56	=56
(8qe/	.	.
8.d/L)	.	.
16c#X/Jk	.	.
2d/	.	.
!LO:LB:g=original	!	!
=57	=57	=57
8A/L	.	.
8c#X/J	.	.
4e/	.	.
4a/	.	.
=58	=58	=58
2.a/	.	.
=59	=59	=59
!LO:TUP:b:problem:klamra łukowa	!	!
12e/L	.	.
12f/	.	.
12g/J	.	.
4f/	.	.
4e/	.	.
=60	=60	=60
8dM/L	.	.
8c#X/J	.	.
(>8qd/	.	.
2dd\)	.	.
=61	=61	=61
8cc#X\L	.	.
8ee\J	4	.
4bn\	.	.
4cc#\	.	.
=62	=62	=62
2.a/	.	.
=63	=63	=63
!LO:TUP:a:problem:klamra łukowa	!	!
12ee\L	.	.
12ff\	.	.
12gg\J	.	.
4ff\	.	.
4ee\	.	.
=64	=64	=64
8ddM\L	.	.
8cc#X\J	.	.
2dd\	.	.
!LO:LB:g=original	!	!
=65	=65	=65
8a\L	.	.
8cc#X\J	.	.
4ee\	.	.
4aa\	.	.
=66	=66	=66
2.aa\	.	.
=67	=67	=67
!LO:TUP:a:problem:klamra łukowa	!	!
12aa\L	1	f
12bb-\	.	.
12ccc\J	.	.
4bb-\	.	.
4aa\	.	.
=68	=68	=68
8.ggM\L	2	.
16ff#X\Jk	.	.
2gg\	.	.
=69	=69	=69
!LO:TUP:a:problem:klamra łukowa	!	!
12gg\L	.	.
12aa\	.	.
12bb-\J	.	.
4aa\	.	.
4gg\	.	.
=70	=70	=70
8.ffM\L	.	.
16ee\Jk	.	.
2ff\	.	.
=71	=71	=71
!LO:TUP:a:problem:klamra łukowa	!	!
12ee\L	.	.
12ff\	.	.
12gg\J	.	.
4ff\	.	.
4ee\	.	.
=72	=72	=72
8.dd\L	.	.
16cc#X\Jk	.	.
4.dd\	.	.
8b-\	.	.
!LO:LB:g=original	!	!
=73	=73	=73
!LO:TUP:a:problem:klamra łukowa	!	!
12a/L	.	.
12g#X/	.	.
12a/J	.	.
!LO:TX:b:i:t=rall.	!	!
4.ff\	.	.
8ee\	.	.
=74	=74	=74
2dd\	.	.
4r	.	.
=75!|:	=75!|:	=75!|:
*k[bnf#c#]	*	*
!LO:TX:a:B:t=Animato.	!	!
(8au\L	.	mf
8cc#\J	.	.
4ee\	.	.
4ff#\)	.	.
=76	=76	=76
(2dd\	.	.
8ff#\L	.	.
8aa\J)	.	.
=77	=77	=77
(8a\L	.	.
8cc#\J	.	.
4ee\	.	.
4ff#\)	.	.
=78	=78	=78
(2dd\	.	.
8bb\L	.	.
8gg\J)	.	.
=79	=79	=79
(8ff#\L	.	.
8aa\J	.	.
4ee\	.	.
4ff#\)	.	.
!LO:LB:g=original	!	!
=80	=80	=80
(2dd\	.	.
8b/L	.	.
8g/J)	.	.
=81	=81	=81
(8f#/L	.	.
8a/J	4	.
4e/	.	.
4f#/)	.	.
=82	=82	=82
*>A1	*>A1	*>A1
(2d/	1	.
8f#/L	.	.
8a/J)	0	.
=83:|!	=83:|!	=83:|!
*>A2	*>A2	*>A2
2.d/	.	.
=84	=84	=84
*>B	*>B	*>B
(8f#/L	.	.
8a/J	4	.
4e/	.	.
4f#/)	.	.
=85	=85	=85
!	!	!LO:HP:b:t=dim.
2.d/	.	>
=86	=86	=86
(8f#/L	.	.
8a/J	4	.
4e/	.	.
4f#/)	.	.
=87	=87	=87
2.d/	.	.
=88	=88	=88
2.d/	.	.
=89	=89	=89
2.d;/	.	.
!LO:PB:g=original	!	!
=90!|:	=90!|:	=90!|:
!LO:TX:a:B:t=Più animato.	!	!
4cc#mu\	.	f
8a#X/L	.	.
8f#/	.	.
8a#/	.	.
8cc#/J	.	.
=91	=91	=91
8dd\L	.	.
8b\J	.	.
4.gg\	.	.
8dd\	.	.
=92	=92	=92
4cc#m\	.	.
8a#X/L	.	.
8f#/	.	.
8a#/	.	.
8cc#/J	.	.
=93	=93	=93
8dd\L	.	.
8b\J	.	.
4.ff#\	.	.
8dd\	.	.
=94	=94	=94
4cc#m\	.	.
8a#X/L	.	.
8f#/	.	.
8a#/	.	.
8cc#/J	.	.
=95	=95	=95
8dd\L	.	.
8b\J	.	.
4.ff#\	.	.
8bb\	.	.
!LO:LB:g=original	!	!
=96	=96	=96
!LO:TX:a:i:t=rit.	!	!
8aa#X\L	.	.
8ff#\J	.	.
4.gg\	.	.
8ee\	.	.
=97	=97	=97
8ff#\L	.	.
8dd\J	.	.
4.ee\	4	.
8cc#\	.	.
=98	=98	=98
(8dd\L	.	.
8b\)	.	.
(8dd\	.	.
8b\)	.	.
(8cc#\	.	.
8a#X\J)	.	.
=99	=99	=99
*>B1	*>B1	*>B1
!LO:TX:a:B:t=Tempo I.	!	!
4.b\	.	.
!LO:TX:i:b:t=accel.	!	!
8d/L	.	.
8f#/	.	.
8b/J	.	.
=100:|!	=100:|!	=100:|!
*>B2	*>B2	*>B2
2b\	.	.
(8dd\L	.	.
8a#X\J)	.	.
=101	=101	=101
*>C	*>C	*>C
2b\	.	.
(8cc#\L	.	.
8a#X\J)	.	.
!LO:LB:g=original	!	!
=102	=102	=102
4.b\	.	.
8dd\L	.	.
8cc#\	.	.
8b#X\J	.	.
=103	=103	=103
4.b\	.	.
8dd\L	.	.
8cc#\	.	.
8a#X\J	.	.
=104	=104	=104
(8bM\L	.	.
8a#X\	.	.
8b\	.	.
8dd\	.	.
8cc#\	.	.
8a#\J)	.	.
=105	=105	=105
(8bM\L	.	.
8a#X\	.	.
8b\	.	.
8dd\	.	.
!	!	!LO:HP:b:t=dim.
8cc#\	.	>
8a#\J)	.	.
=106	=106	=106
!LO:TX:b:i:t=e poco morendo	!	!
2.bT\	.	.
=107	=107	=107
2.ddT\	2	.
!LO:LB:g=original	!	!
=108	=108	=108
2.ff#t\	.	.
=109	=109	=109
(16qqee#X/LL	.	.
16qqff#/JJ	.	.
[2.bb\)	.	.
=110	=110	=110
2.bb;\]	.	.
=111!|:	=111!|:	=111!|:
*k[cnf#]	*	*
!LO:TX:a:B:t=Allegro con fuoco.	!	!
!LO:TX:b:i:t=risoluto	!	!
8.bbu\L	.	ff
16aa\Jk	.	.
4ggM\	.	.
8dd\L	.	.
8b\J	.	.
=112	=112	=112
(8qa/	.	.
8.ff#\L)	.	.
16ee\Jk	.	.
4ccM\	.	.
8a/L	.	.
8g/J	.	.
=113	=113	=113
8f#\L	.	.
8ee\J	4	.
4ddM\	.	.
8cc\L	.	.
8b\J	.	.
=114	=114	=114
8g\L	.	.
8ee\J	.	.
4ddM\	.	.
8b/L	.	.
8g/J	.	.
!LO:LB:g=original	!	!
=115	=115	=115
8.bb^\L	.	sf
16aa\Jk	.	.
4ggM\	.	.
8dd\L	.	.
8b\J	.	.
=116	=116	=116
(8qa/	.	.
8.ff#\L)	.	.
16ee\Jk	.	.
4ccM\	.	.
8a/L	.	.
8g/J	.	.
=117	=117	=117
8f#\L	.	.
8ee\J	4	.
4ddM\	.	.
8cc\L	.	.
8a\J	.	.
=118	=118	=118
*>C1	*>C1	*>C1
4.g/	.	.
8b\L	.	.
8dd\	.	.
8gg\J	.	.
=119:|!	=119:|!	=119:|!
*>C2	*>C2	*>C2
4.g/	.	.
8b\L	.	.
8dd\	.	.
8gg\J	.	.
=120	=120	=120
*>D	*>D	*>D
(8ee\L	.	.
8gg\J)	.	.
2dd\	.	.
!LO:LB:g=original	!	!
=121	=121	=121
(8ee\L	.	.
8gg\)	.	.
(8dd\	.	.
8gg\)	.	.
(8dd\	.	.
8gg\J)	.	.
=122	=122	=122
(8ee\L	.	.
8gg\J)	.	.
2dd\	.	.
=123	=123	=123
8.eee\L	0	f
16ddd\Jk	.	.
4cccM\	.	.
8bb\L	.	.
8aa\J	.	.
=124	=124	=124
8qdd/	.	.
8.bb\L	.	.
16aa\Jk	.	.
4ggM\	.	.
8ff#\L	.	.
8ee\J	.	.
=125	=125	=125
8.ff#\L	.	.
16ee\Jk	.	.
4ddM\	.	.
8cc\L	.	.
8a\J	.	.
!LO:LB:g=original	!	!
=126	=126	=126
(8qd/	.	>
8b/L)	.	.
8a/	.	.
8g/	.	.
8f#/	.	.
8e/	.	.
8d/J	.	]]
=127	=127	=127
4.g/	.	.
8b\L	.	.
8dd\	.	.
8gg\J	.	.
=128	=128	=128
(8ee\L	.	.
8gg\J)	.	.
2dd\	.	.
=129	=129	=129
(8ee\L	.	.
8gg\)	.	.
(8dd\	.	.
8gg\)	.	.
(8dd\	.	.
8gg\J)	.	.
=130	=130	=130
(8ee\L	.	.
8gg\J)	.	.
2dd\	.	.
!LO:LB:g=original	!	!
=131	=131	=131
!LO:TX:b:i:t=furioso	!	!
8.eee\L	0	.
16ddd\Jk	.	.
4cccM\	.	.
8bb\L	.	.
8aa\J	.	.
=132	=132	=132
8.ddd\L	.	.
16ccc\Jk	.	.
4bbm\	.	.
8aa\L	.	.
8gg\J	.	.
=133	=133	=133
8.bb\L	4	.
16aa\Jk	.	.
4ggM\	.	.
8ff#\L	.	.
8ee\J	.	.
=134	=134	=134
8.aa\L	.	.
16gg\Jk	.	.
4ff#m\	.	.
8ee\L	.	.
8dd\J	.	.
=135	=135	=135
8gg\L	.	.
8aa\J	.	.
4ff#m\	.	.
!LO:TX:b:i:t=poco	!	!
8ee\L	.	.
8dd\J	.	.
!LO:LB:g=original	!	!
=136	=136	=136
!LO:TX:b:i:t=a	!	!
8gg\L	.	.
8aa\J	.	.
4ff#t\	.	.
!LO:TX:b:i:t=poco	!	!
4gg\	.	.
=137	=137	=137
8gg\L	.	.
8aa\J	.	.
!LO:TX:b:i:t=ri-te-nu-do:dur=2q9e:ext=cd:problem:text with extention lines 	!	!
4ff#t\	.	.
8ee\L	.	.
8dd\J	.	.
=138	=138	=138
8gg\L	.	.
8aa\J	.	.
4ff#t\	.	.
8ee\L	.	.
8dd\J	.	.
=139	=139	=139
8gg\L	4	.
8bb\J	.	.
2ddd\	.	.
=140	=140	=140
8gg\L	2	.
8aa\J	.	.
4ff#t\	.	.
8ee\L	.	.
8dd\J	.	.
=141	=141	=141
8gg\L	.	p
8bb\J	2	.
2ddd\	.	.
!LO:LB:g=original	!	!
=142	=142	=142
8gg\L	.	.
8bb\J	.	.
2ddd\	.	.
=143	=143	=143
8bb\L	4	f
8aa\J	.	.
!LO:TUP:a:problem:klamra łukowa	!	!
12gg\L	.	.
12aa\	.	.
12gg\J	.	.
8ff#\L	.	.
8ee\J	.	.
=144	=144	=144
(8qa/	.	.
8ee\L)	4	.
8dd\J	.	.
!LO:TUP:a:problem:klamra łukowa	!	!
12cc\L	.	.
12dd\	.	.
12cc\J	.	.
8a/L	.	.
8g/J	.	.
=145	=145	=145
8f#\L	.	.
8ee\J	.	.
!LO:TUP:b:problem:klamra łukowa	!	!
12dd\L	.	.
12ee\	4	.
12dd\J	.	.
8cc/L	.	.
8f#/J	.	.
=146	=146	=146
8g\L	.	.
8ee\J	4	.
!LO:TUP:b:problem:klamra łukowa	!	!
12dd\L	.	.
12ee\	4	.
12dd\J	.	.
8b/L	.	.
8g/J	.	.
!LO:LB:g=original	!	!
=147	=147	=147
8bb\L	.	.
8aa\J	.	.
!LO:TUP:a:problem:klamra łukowa	!	!
12gg\L	.	.
12aa\	.	.
12gg\J	.	.
8ff#\L	.	.
8ee\J	0	.
=148	=148	=148
8ee\L	4	.
8dd\J	.	.
!LO:TUP:a:problem:klamra łukowa	!	!
12cc\L	.	.
12dd\	.	.
12cc\J	.	.
8a/L	.	.
8g/J	.	.
=149	=149	=149
8f#\L	.	.
8ee\J	4	.
!LO:TUP:a:problem:klamra łukowa	!	!
12dd\L	.	.
12ee\	.	.
12dd\J	.	.
8cc/L	.	.
8f#/J	.	.
=150	=150	=150
4g/	.	.
!LO:TX:b:i:t=sec.	!	!
4gg\	.	.
4r;	.	.
!LO:LB:g=original	!	!
=151!|:	=151!|:	=151!|:
*k[f#c#]	*	*
!LO:TX:a:B:t=Tempo I.	!	!
8.ddu\L	.	p
16ff#\Jk	.	.
2aa\	.	.
=152	=152	=152
8.gg#X\L	.	.
16ee\Jk	.	.
2aa\	.	.
=153	=153	=153
8.ff#\L	.	.
16dd\Jk	.	.
4aa\	.	.
4ff#\	.	.
=154	=154	=154
8eeM\L	.	.
8cc#\J	.	.
2a/	.	.
=155	=155	=155
8.dd\L	.	.
16ff#\Jk	.	.
2aa\	.	.
=156	=156	=156
8.gg#X\L	.	.
16ee\Jk	.	.
2aa\	.	.
=157	=157	=157
8.ff#\L	.	.
16dd\Jk	.	.
4aa\	.	.
4ff#\	.	.
!LO:PB:g=original	!	!
=158	=158	=158
8eeM\L	.	.
8cc#\J	.	.
2a/	.	.
=159	=159	=159
!LO:TUP:a:problem:klamra łukowa	!	!
12b\L	.	.
12cc#\	.	.
12dd\J	.	.
4cc#\	.	.
4b\	.	.
=160	=160	=160
!LO:TUP:a:problem:klamra łukowa	!	!
12cc#\L	.	.
12a\	.	.
12cc#\J	.	.
2ee\	4	.
=161	=161	=161
!LO:TUP:a:problem:klamra łukowa	!	!
12b\L	.	.
12cc#\	.	.
12dd\J	.	.
4cc#\	.	.
4b\	.	.
=162	=162	=162
8cc#\L	.	.
8a\J	.	.
2e/	.	.
=163	=163	=163
!LO:TUP:a:problem:klamra łukowa	!	!
12b\L	.	.
12cc#\	.	.
12dd\J	.	.
4cc#\	.	.
4b\	.	.
!LO:LB:g=original	!	!
=164	=164	=164
!LO:TUP:a:problem:klamra łukowa	!	!
12cc#\L	.	.
12a\	.	.
12cc#\J	.	.
2ee\	4	.
=165	=165	=165
!LO:TUP:a:problem:klamra łukowa	!	!
12b\L	.	.
12cc#\	.	.
12dd\J	.	.
4cc#\	.	.
4b\	.	.
=166	=166	=166
!	!	!LO:HP:b:t=dim. e rall.
(8qb/	.	>
2.a/)	.	.
=167	=167	=167
(8qb/	.	.
2.a/)	.	.
=168	=168	=168
(8qb/	.	.
2.a/)	.	.
=169:|!|:	=169:|!|:	=169:|!|:
!LO:TX:b:i:t=delicato	!	!
8ddu\L	.	pp
8ff#\J	.	.
2aa\	.	.
=170	=170	=170
8gg#X\L	.	.
8ee\J	.	.
2aa\	.	.
!LO:LB:g=original	!	!
=171	=171	=171
8ff#\L	.	.
8dd\J	.	.
4.aa\	.	.
8ff#\	.	.
=172	=172	=172
8ee\L	.	.
8cc#\J	.	.
2a/	.	.
=173:|!	=173:|!	=173:|!
!LO:TUP:a:problem:klamra łukowa	!	!
12b\L	.	.
12cc#\	.	.
12dd\J	.	.
4cc#\	.	.
4b\	.	.
=174	=174	=174
8cc#\L	.	.
8a\J	.	.
2ee\	4	.
=175	=175	=175
!LO:TUP:a:problem:klamra łukowa	!	!
12b\L	.	.
12cc#\	.	.
12dd\J	.	.
4cc#\	.	.
4b\	.	.
=176	=176	=176
8cc#\L	.	.
8a\J	.	.
2e/	.	.
!LO:LB:g=original	!	!
=177	=177	=177
!LO:TUP:a:problem:klamra łukowa	!	!
12b\L	.	.
12cc#\	.	.
12dd\J	.	.
4cc#\	.	.
4b\	.	.
=178	=178	=178
8cc#\L	.	.
8a\J	.	.
2ee\	4	.
=179	=179	=179
!LO:TUP:a:problem:klamra łukowa	!	!
12b\L	.	.
12cc#\	.	.
12dd\J	.	.
4cc#\	.	.
4b\	.	.
=180	=180	=180
!	!	!LO:HP:b:t=rall e dim.
[2.aTT/	.	>
=181	=181	=181
2.attt/_	.	.
=182	=182	=182
2.attt/_	.	.
=183	=183	=183
2.attt/]	.	.
!LO:LB:g=original	!	!
=184||	=184||	=184||
*k[fndnb-]	*	*
!LO:TX:t=P:problem: kasowniki: ffn ddn	!	!
!LO:TX:a:B:t=Più lento.	!	!
8du/L	.	mf
8f/J	.	.
2a/	.	.
=185	=185	=185
8g/L	.	.
8g/J	.	.
2a/	.	.
=186	=186	=186
!LO:TUP:a:problem:klamra łukowa	!	!
12d/L	.	.
12e/	.	.
12f/J	.	.
4a/	.	.
4f/	.	.
=187	=187	=187
2.e/	.	.
=188	=188	=188
8d/L	.	.
8f/J	.	.
2a/	.	.
=189	=189	=189
8g/L	.	.
8g/J	.	.
2a/	.	.
=190	=190	=190
!LO:TUP:a:problem:klamra łukowa	!	!
12d/L	.	.
12e/	.	.
12f/J	.	.
4a/	.	.
4f/	.	.
!LO:LB:g=original	!	!
=191	=191	=191
2.e/	.	.
=192	=192	=192
!LO:TUP:a:problem:klamra łukowa	!	!
12e/L	.	.
12f/	.	.
12g/J	.	.
4f/	.	.
4e/	.	.
=193	=193	=193
(8qe/	.	.
8.d/L)	.	.
16c#X/Jk	.	.
2d/	.	.
=194	=194	=194
8A/L	.	.
8c#X/J	.	.
4e/	.	.
4a/	.	.
=195	=195	=195
2.a/	.	.
=196	=196	=196
!LO:TUP:a:problem:klamra łukowa	!	!
12e/L	.	.
12f/	.	.
12g/J	.	.
4f/	.	.
4e/	.	.
=197	=197	=197
8dM/L	.	.
8c#X/J	.	.
(8qd/	.	.
2dd\)	.	.
!LO:LB:g=original	!	!
=198	=198	=198
8cc#X\L	.	.
8ee\J	4	.
4bn\	.	.
4cc#\	.	.
=199	=199	=199
2.a/	.	.
=200	=200	=200
!LO:TUP:a:problem:klamra łukowa	!	!
12ee\L	.	.
12ff\	.	.
12gg\J	.	.
4ff\	.	.
4ee\	.	.
=201	=201	=201
8ddM\L	.	.
8cc#X\J	.	.
2dd\	.	.
=202	=202	=202
8a\L	.	.
8cc#X\J	.	.
4ee\	.	.
4aa\	.	.
=203	=203	=203
2.aa\	.	.
=204	=204	=204
!LO:TUP:a:problem:klamra łukowa	!	!
12aa\L	1	f
12bb-\	.	.
12ccc\J	.	.
4bb-\	.	.
4aa\	.	.
=205	=205	=205
8.ggM\L	2	.
16ff#X\Jk	.	.
2gg\	.	.
!LO:LB:g=original	!	!
=206	=206	=206
!LO:TUP:a:problem:klamra łukowa	!	!
12gg\L	.	.
12aa\	.	.
12bb-\J	.	.
4aa\	.	.
4gg\	.	.
=207	=207	=207
8.ffM\L	.	.
16ee\Jk	.	.
2ff\	.	.
=208	=208	=208
!LO:TUP:a:problem:klamra łukowa	!	!
12ee\L	.	.
12ff\	.	.
12gg\J	.	.
4ff\	.	.
4ee\	.	.
=209	=209	=209
8.dd\L	.	.
16cc#X\Jk	.	.
4.dd\	.	.
8b-\	.	.
=210	=210	=210
!LO:TUP:a:problem:klamra łukowa	!	!
12a/L	.	.
12g#X/	.	.
12a/J	.	.
!LO:TX:b:i:t=rall.	!	!
4.ff\	.	.
8ee\	.	.
=211	=211	=211
2dd\	.	.
4r	.	.
=212||	=212||	=212||
*k[bnf#c#]	*	*
!LO:TX:a:B:t=Tempo I con energia.	!	!
12eu/L	.	ff
12e/	.	.
12e/J	.	.
4e/	.	.
(8c#/L	.	.
8e/J)	.	.
=213	=213	=213
!LO:TUP:b	!	!
12a/L	.	.
12a/	.	.
12a/J	.	.
4a/	.	.
(8f#/L	.	.
8a/J)	.	.
=214	=214	=214
!LO:TUP:a	!	!
12ee\L	.	.
12ee\	.	.
12ee\J	.	.
4ee\	.	.
(8cc#\L	.	.
8ee\J)	0	.
=215	=215	=215
!LO:TUP:a	!	!
12aa\L	.	.
12aa\	.	.
12aa\J	.	.
4aa\	.	.
(8ff#\L	.	.
8aa\J)	.	.
!LO:LB:g=original	!	!
=216	=216	=216
(8a\L	.	mf
8cc#\J)	.	.
(4ee\	.	.
4ff#\)	.	.
=217	=217	=217
2dd\	.	.
(8bb\L	.	.
8gg\J)	.	.
=218	=218	=218
(8ff#\L	.	.
8aa\J	.	.
4ee\	.	.
4ff#\)	.	.
=219	=219	=219
(2dd\	.	.
8b/L	.	.
8g/J)	.	.
=220	=220	=220
(8f#/L	.	.
8a/J	4	.
4e/	.	.
4f#/)	.	.
=221	=221	=221
*>D1	*>D1	*>D1
2d/	.	.
(8c#/L	.	.
8B/J)	.	.
=222:|!	=222:|!	=222:|!
*>D2	*>D2	*>D2
2.d/	.	.
=223	=223	=223
*>E	*>E	*>E
!	!	!LO:HP:b:t=poco a poco rall. e dim.
(8f#/L	.	>
8a/J)	.	.
4e/	.	.
4f#/	.	.
=224	=224	=224
2.d/	.	.
=225	=225	=225
(8f#/L	.	.
8a/J)	.	.
4e/	.	.
(8g/L	.	.
8f#/J)	.	.
=226	=226	=226
2.d/	.	.
=227	=227	=227
2.d/	.	.
=228	=228	=228
2.d;/	.	.
=229||	=229||	=229||
!LO:TX:a:B:t=Vivace.	!	!
!LO:TUP:b	!	!
12eu/L	.	ff
12e/	.	.
12e/J	.	.
4e/	.	.
(8c#/L	.	.
8e/J)	.	.
=230	=230	=230
!LO:TUP:b	!	!
12a/L	.	.
12a/	.	.
12a/J	.	.
4a/	.	.
(8f#/L	.	.
8a/J)	.	.
=231	=231	=231
!LO:TUP:a	!	!
12ee\L	.	.
12ee\	.	.
12ee\J	.	.
4ee\	.	.
(8cc#\L	.	.
8ee\J)	.	.
=232	=232	=232
4dd\	1	.
!LO:TX:i:b:t=sec.	!	!
4ddd\	4	.
4r	.	.
==	==	==
*-	*-	*-
!!!RDF**kern: > = above
!!!RDF**kern: < = below
!!!ENC: Filip Voros
!!!END: 2022-07-30
!!!ENC: Jan Barakat
!!!END: 2022-08-27
